X:2213
T:Sheridan's Hornpipe
O:ireland
R:hornpipe
Z:id:hn-hornpipe-106
M:C|
L:1/8
K:G
B,D|GFGA Bdgf|agfc ed^cd|BGDG cAFG|ABcB AG (3FED|
G,B,D=F ECEG|(3FED FA GBAc|Bgfg cAFD|(3GGG (3AGF G2:|
|:fg|afdg bgfa|gfge dcBd|ceAc BcdG|FAcB AG (3FED|
G,B,D=F ECEG|(3FED FA GBAc|Bgfg cAFD|(3GGG (3AGF G2:|
This file contains 100 jigs (#1 - #100).
You can find more abc tune files at http://home1.swipnet.se/~w-11382/abc.htm
I've transcribed them as I have learnt them, which does not necessarily mean
that I play them that way nowadays. Many of the tunes include variations and
different versions. If there is a source (S:) or discography (D:) included the
version transcribed might still not be exactly as that source played the tune,
since I might have changed the tune around a bit when I learnt it.
The tunes were learnt from sessions, from friends or from recordings.
When I've included discography, it's often just a reference to what recordings
the tune appears on.
Last updated 23 March 2001.
(c) Copyright 1996-2001 Henrik Norbeck. This file:
- May be distributed freely (with restrictions below).
- May not be used for commercial purposes (such as printing a tune book to sell).
- This file (or parts of it) may not be made available on a web page for
download without permission from me.
- This copyright notice must be kept, except when e-mailing individual tunes.
- May be printed on paper for personal use.
- Questions? E-mail: henrik.norbeck@mailbox.swipnet.se






